!!!SOCIAL_FUNCTION: unclassified songs
!!!PDT:	1929
!!!LING_GROUP: Caddoan
!!!LANG: Non-Tone
!!!REG: Oklahoma
!!!COM: Anon.
!!!OTL: Song to Comfort a Child's Grief
!!!ODT: <1920//
!!!MPN: Tutukrawitsu [He overtook the enemy, Wicita Blain]
!!!MLC: Pawnee, Oklahoma, United States of America
!! Song was recorded either 1919 or 1920.
!!!AGN: monody
!!!AMT: irregular
!!!RWG: Transcribed pitches, durations, and meters are only approximate.
!! Drum not recorded
**kern	**silbe	**words	**words
*ICvox	*LPawnee	*LPawnee	*LEnglish
*Imale	*	*	*
*clefF4	*	*	*
*k[f#c#]	*	*	*
*MM66	*MM66	*MM66	*MM66
*[A,B,B]	*[A,B,B]	*[A,B,B]	*[A,B,B]
*>A	*>A	*>A	*>A
*M2/4	*M2/4	*M2/4	*M2/4
16f#	He-	Aheru	Dear
=1	=1	=1	=1
8.f#	-ru	.	.
16e	te-	tekis	child
8.e	-kis	.	.
16d	he-	heru	dear
=2	=2	=2	=2
8.d	-ru	.	.
16d	te-	tekis	child
4.d	-kis	.	.
*>B	*>B	*>B	*>B
16e	he-	heru	dear
=3	=3	=3	=3
8.e	-ru	.	.
16d	te-	tekis	child
8.d	-kis	.	.
16d	he	heru	dear
=4	=4	=4	=4
8.d	-ru	.	.
16A	te-	tekis	child
8.A	-kis	.	.
16A	he-	heru	dear
=5	=5	=5	=5
8.A~	-ru	.	.
16A	te-	tekis	child
8F#	-kis	.	.
8D	he-	heru	dear
=6	=6	=6	=6
8.D	-ru	.	.
16D	te-	tekis	child
8.D	-kis	.	.
16A	ri-	rikutsi	stop crying
=7	=7	=7	=7
8.A	-ku-	.	.
16A	-tsi	.	.
4F#	e	.	.
*M3/4	*M3/4	*M3/4	*M3/4
=8	=8	=8	=8
16D	ha	ha	yonder
8.D	re	re	there
8D	wa-	wahake	heavens
24D	-ha-	.	.
24D	-a-	.	.
24D	-a-	.	.
4D	-ke	.	.
*M2/4	*M2/4	*M2/4	*M2/4
=9	=9	=9	=9
2D	re	re	there
=10	=10	=10	=10
4..D	.	.	.
==:|!	==:|!	==:|!	==:|!
*-	*-	*-	*-
!!!HAO:    The singer who recorded the next song spent his childhood in Nebraska,
!!!HAO: before the Pawnee moved to Oklahoma.  His mother died when he was 3 years
!!!HAO: old and he grieved a long time for her.  His father sing this song to
!!!HAO: comfort him and said, "We can do nothing when a person dies; we can only
!!!HAO: pray.  Perhaps some day you will be a man and have children around you."
!!!HAO: When he grew up his father, who was still living, taught him the song and
!!!HAO: told him of its early use.  He made it into a war dance and it is known
!!!HAO: as his song.
!!!HTX: My dear child, stop crying,
!!!HTX: Yonder there, in the expanse of the heavens, is where power dwells.
!!!CNT: Pawnee
!!!TXO: Pawnee
!!!OCY: United States
!!!OCL: Frances Densmore
!!!YOR: Frances Densmore, "Pawnee Music"
!!!YOR: Bulletin 93, page 113, No. 82
!!!PPR: Smithsonian Institution, Bureau of American Ethnology
!!!PPR: Government Printing Office
!!!PDT: 1926
!!!PPP: Washington, DC, United States of America
!!!YEC: Electronic Copyright 2000 David Huron
!!!YER: September 2000
!!!YEN: United States of America
!!!ENC: David Huron
!!!RDT: September 10, 2000
!!!EEV: Release 1.0
!!!AIN: vox
